; HEADER_BLOCK_START
; generated by OrcaSlicer 2.3.0 on 2025-07-12 at 15:44:56
; total layer number: 40
;_GP_TOTAL_LAYER_NUMBER_PLACEHOLDER
; filament_density: 1.24
; filament_diameter: 1.75
; max_z_height: 8.04
; HEADER_BLOCK_END

; THUMBNAIL_BLOCK_START

;
; THUMBNAIL_BLOCK_END

; external perimeters extrusion width = 0.42mm
; perimeters extrusion width = 0.45mm
; infill extrusion width = 0.45mm
; solid infill extrusion width = 0.42mm
; top infill extrusion width = 0.42mm
; support material extrusion width = 0.40mm
; first layer extrusion width = 0.50mm

; EXECUTABLE_BLOCK_START
M201 X2000 Y2000 Z800 E2000
M203 X300 Y300 Z8 E100
M204 P2000 R2000 T2000
M205 X10.00 Y10.00 Z2.00 E5.00 ; sets the jerk limits, mm/sec
;TYPE:Custom
G90 ; use absolute coordinates
M83 ; extruder relative mode
M104 S220 ; set extruder temp
M140 S60 ; set bed temp
M190 S60 ; wait for bed temp
M109 S220 ; wait for extruder temp
G28; move X/Y/Z to min endstops
G1 Z0.28; lift nozzle a bit
G92 E0
G1 Y3 F1800                                    ; zero the extruded length 
G1 X60  E25 F500                       ; Extrude 25mm of filament in a 5cm line. 
G92 E0                                     ; zero the extruded length again 
G1 E-2 F500                                ; Retract a little 
G1 X70 F4000                              ; Quickly wipe away from the filament line
M117
G90
G21
M82 ; use absolute distances for extrusion
G92 E0
; filament start gcode
M106 S0
;LAYER_CHANGE
;Z:0.24
;HEIGHT:0.24
; BEFORE_LAYER_CHANGE 0 @ 0.24mm
G1 E-2.5 F6000
G92 E0
; AFTER_LAYER_CHANGE 0 @ 0.24mm
;_SET_FAN_SPEED_CHANGING_LAYER
M204 S500
; printing object metstat.STL id:15 copy 0
G1 X133.258 Y85.371 F18000
G1 Z.24
G1 E2.5 F6000
;TYPE:Support
;WIDTH:0.5
G1 F3000
G1 X133.51 Y85.432 E2.51123
G1 X133.749 Y85.531 E2.52246
G1 X133.969 Y85.666 E2.5337
G1 X134.166 Y85.834 E2.54493
G1 X134.334 Y86.031 E2.55616
G1 X134.469 Y86.251 E2.56739
G1 X134.568 Y86.49 E2.57862
G1 X134.629 Y86.742 E2.58985
G1 X134.65 Y87.014 E2.60168
G1 X134.65 Y132.986 E4.59728
G1 X134.629 Y133.258 E4.60911
G1 X134.568 Y133.51 E4.62035
G1 X134.469 Y133.749 E4.63158
G1 X134.334 Y133.969 E4.64281
G1 X134.166 Y134.166 E4.65404
G1 X133.969 Y134.334 E4.66527
G1 X133.749 Y134.469 E4.6765
G1 X133.51 Y134.568 E4.68774
G1 X133.258 Y134.629 E4.69897
G1 X132.986 Y134.65 E4.7108
G1 X87.014 Y134.65 E6.7064
G1 X86.742 Y134.629 E6.71823
G1 X86.49 Y134.568 E6.72946
G1 X86.251 Y134.469 E6.74069
G1 X86.031 Y134.334 E6.75192
G1 X85.834 Y134.166 E6.76315
G1 X85.666 Y133.969 E6.77439
G1 X85.531 Y133.749 E6.78562
G1 X85.432 Y133.51 E6.79685
G1 X85.373 Y133.266 E6.80771
G1 X85.35 Y132.985 E6.81994
G1 X85.35 Y87.014 E8.81551
G1 X85.371 Y86.742 E8.82734
G1 X85.432 Y86.49 E8.83857
G1 X85.531 Y86.251 E8.8498
G1 X85.666 Y86.031 E8.86103
G1 X85.834 Y85.834 E8.87226
G1 X86.031 Y85.666 E8.8835
G1 X86.251 Y85.531 E8.89473
G1 X86.49 Y85.432 E8.90596
G1 X86.742 Y85.371 E8.91719
G1 X87.014 Y85.35 E8.92902
G1 X132.986 Y85.35 E10.92462
G1 X133.191 Y85.366 E10.93353
G1 X111.179 Y107.558 F18000
G1 F3000
G1 X111.367 Y107.334 E10.94621
G1 X111.776 Y107.574 E10.96677
G1 X112.634 Y107.868 E11.00614
G1 X113.171 Y107.95 E11.02973
G1 X113.599 Y107.992 E11.04839
G1 X114.495 Y107.929 E11.08739
G1 X115.23 Y107.726 E11.12051
G1 X115.46 Y108.215 E11.14396
G1 X115.385 Y108.462 E11.15519
G1 X115.282 Y108.964 E11.17742
G1 X115.241 Y109.375 E11.19533
G1 X115.241 Y109.887 E11.21756
G1 X115.282 Y110.297 E11.23547
G1 X115.338 Y110.573 E11.24768
G1 X115.227 Y110.723 E11.25579
G1 X115.054 Y111.048 E11.27178
G1 X114.364 Y111.132 E11.30193
G1 X113.491 Y111.421 E11.34185
G1 X112.928 Y111.743 E11.37
G1 X112.728 Y111.645 E11.37966
G1 X111.847 Y111.401 E11.41933
G1 X110.923 Y111.336 E11.45955
G1 X110.005 Y111.456 E11.49976
G1 X109.358 Y111.678 E11.52945
G1 X108.373 Y111.405 E11.5738
G1 X107.449 Y111.34 E11.61402
G1 X106.53 Y111.46 E11.65423
G1 X105.848 Y111.694 E11.68555
G1 X105.775 Y110.973 E11.71699
G1 X105.501 Y110.088 E11.75722
G1 X105.397 Y109.897 E11.76665
G1 X105.586 Y109.673 E11.77937
G1 X106.03 Y108.86 E11.81959
G1 X106.145 Y108.49 E11.83643
G1 X106.891 Y108.745 E11.87067
G1 X107.81 Y108.865 E11.91088
G1 X108.719 Y108.802 E11.95045
G1 X109.239 Y108.667 E11.97376
G1 X109.646 Y108.543 E11.99223
G1 X110.453 Y108.133 E12.03151
G1 X111.126 Y107.599 E12.06881
G1 E10.31881 F6000
;WIPE_START
G1 F3000
G1 X110.453 Y108.133 E9.67435
G1 X110.327 Y108.197 E9.56881
;WIPE_END
G92 E0
G1 X133.92 Y134.111 F18000
G1 E2.5 F6000
G1 F3000
G1 X133.92 Y86.167 E4.58116
G1 X133.88 Y86.12 E4.58384
G1 X133.731 Y85.994 E4.59231
G1 X133.565 Y85.892 E4.60079
G1 X133.421 Y85.832 E4.60752
G1 X133.421 Y134.168 E6.7057
G1 X133.384 Y134.183 E6.70744
G1 X133.195 Y134.229 E6.71591
G1 X132.97 Y134.246 E6.72568
G1 X132.923 Y134.246 E6.72773
G1 X132.923 Y85.754 E8.83273
G1 X132.425 Y85.754 E8.85436
G1 X132.425 Y134.246 E10.95936
G1 X131.926 Y134.246 E10.98099
G1 X131.926 Y85.754 E13.08599
G1 X131.428 Y85.754 E13.10762
G1 X131.428 Y134.246 E15.21262
G1 X130.93 Y134.246 E15.23425
G1 X130.93 Y85.754 E17.33924
G1 X130.431 Y85.754 E17.36088
G1 X130.431 Y134.246 E19.46587
G1 X129.933 Y134.246 E19.48751
G1 X129.933 Y85.754 E21.5925
G1 X129.435 Y85.754 E21.61413
G1 X129.435 Y134.246 E23.71913
G1 X128.936 Y134.246 E23.74076
G1 X128.936 Y85.754 E25.84576
G1 X128.438 Y85.754 E25.86739
G1 X128.438 Y134.246 E27.97239
G1 X127.94 Y134.246 E27.99402
G1 X127.94 Y85.754 E30.09902
G1 X127.441 Y85.754 E30.12065
G1 X127.441 Y134.246 E32.22565
G1 X126.943 Y134.246 E32.24728
G1 X126.943 Y85.754 E34.35228
G1 X126.445 Y85.754 E34.37391
G1 X126.445 Y134.246 E36.47891
G1 X125.946 Y134.246 E36.50054
G1 X125.946 Y85.754 E38.60554
G1 X125.448 Y85.754 E38.62717
G1 X125.448 Y134.246 E40.73217
G1 X124.95 Y134.246 E40.7538
G1 X124.95 Y85.754 E42.8588
G1 X124.452 Y85.754 E42.88043
G1 X124.452 Y134.246 E44.98542
G1 X123.953 Y134.246 E45.00706
G1 X123.953 Y85.754 E47.11205
G1 X123.455 Y85.754 E47.13369
G1 X123.455 Y134.246 E49.23868
G1 X122.957 Y134.246 E49.26031
G1 X122.957 Y85.754 E51.36531
G1 X122.458 Y85.754 E51.38694
G1 X122.458 Y134.246 E53.49194
G1 X121.96 Y134.246 E53.51357
G1 X121.96 Y85.754 E55.61857
G1 X121.462 Y85.754 E55.6402
G1 X121.462 Y134.246 E57.7452
G1 X120.963 Y134.246 E57.76683
G1 X120.963 Y85.754 E59.87183
G1 X120.465 Y85.754 E59.89346
G1 X120.465 Y134.246 E61.99846
G1 X119.967 Y134.246 E62.02009
G1 X119.967 Y85.754 E64.12509
G1 X119.468 Y85.754 E64.14672
G1 X119.468 Y134.246 E66.25172
G1 X118.97 Y134.246 E66.27335
G1 X118.97 Y85.754 E68.37835
G1 X118.472 Y85.754 E68.39998
G1 X118.472 Y134.246 E70.50498
G1 X117.973 Y134.246 E70.52661
G1 X117.973 Y85.754 E72.6316
G1 X117.475 Y85.754 E72.65324
G1 X117.475 Y134.246 E74.75823
G1 X116.977 Y134.246 E74.77987
G1 X116.977 Y85.754 E76.88486
G1 X116.478 Y85.754 E76.90649
G1 X116.478 Y134.246 E79.01149
G1 X115.98 Y134.246 E79.03312
G1 X115.98 Y85.754 E81.13812
G1 X115.482 Y85.754 E81.15975
G1 X115.482 Y107.311 E82.09551
G1 X115.451 Y107.246 E82.09862
G1 X114.983 Y107.375 E82.11969
G1 X114.983 Y85.754 E83.05826
G1 X114.485 Y85.754 E83.07989
G1 X114.485 Y107.513 E84.02444
G1 X114.426 Y107.53 E84.02708
G1 X113.987 Y107.56 E84.04621
G1 X113.987 Y85.754 E84.99281
G1 X113.488 Y85.754 E85.01444
G1 X113.488 Y107.576 E85.96171
G1 X113.221 Y107.549 E85.97335
G1 X112.99 Y107.514 E85.98351
G1 X112.99 Y85.754 E86.9281
G1 X112.492 Y85.754 E86.94973
G1 X112.492 Y107.392 E87.88904
G1 X111.993 Y107.222 E87.9119
G1 X111.993 Y85.754 E88.8438
G1 X111.495 Y85.754 E88.86543
G1 X111.495 Y106.941 E89.78516
G1 X111.278 Y106.814 E89.79608
G1 X110.997 Y107.148 E89.81502
G1 X110.997 Y85.754 E90.74371
G1 X110.498 Y85.754 E90.76534
G1 X110.498 Y107.582 E91.71289
G1 X110.234 Y107.792 E91.72753
G1 X110 Y107.911 E91.73892
G1 X110 Y85.754 E92.70073
G1 X109.502 Y85.754 E92.72237
G1 X109.502 Y108.164 E93.69517
G1 X109.495 Y108.168 E93.6955
G1 X109.13 Y108.278 E93.71206
G1 X109.003 Y108.311 E93.71773
G1 X109.003 Y85.754 E94.69691
G1 X108.505 Y85.754 E94.71855
G1 X108.505 Y108.412 E95.70211
G1 X108.007 Y108.447 E95.72379
G1 X108.007 Y85.754 E96.70887
G1 X107.508 Y85.754 E96.73051
G1 X107.508 Y108.419 E97.71437
G1 X107.01 Y108.354 E97.73618
G1 X107.01 Y85.754 E98.71722
G1 X106.512 Y85.754 E98.73885
G1 X106.512 Y108.188 E99.71271
G1 X106.013 Y108.018 E99.73558
G1 X106.013 Y85.754 E100.70203
G1 X105.515 Y85.754 E100.72366
G1 X105.515 Y109.382 E101.74935
G1 E99.99935 F6000
;WIPE_START
G1 F3000
G1 X105.515 Y108.382 E99.24935
;WIPE_END
G92 E0
G1 X115.482 Y134.448 F18000
G1 E2.5 F6000
G1 F3000
G1 X115.482 Y111.104 E3.51336
G1 X115.311 Y111.423 E3.52909
G1 X114.983 Y111.463 E3.54341
G1 X114.983 Y134.246 E4.53239
G1 X114.485 Y134.246 E4.55403
G1 X114.485 Y111.524 E5.54037
G1 X114.453 Y111.528 E5.54177
G1 X113.987 Y111.682 E5.56309
G1 X113.987 Y134.246 E6.54256
G1 X113.488 Y134.246 E6.56419
G1 X113.488 Y111.888 E7.53475
G1 X112.99 Y112.172 E7.55965
G1 X112.99 Y134.246 E8.51787
G1 X112.492 Y134.246 E8.5395
G1 X112.492 Y111.998 E9.50527
G1 X111.993 Y111.86 E9.52772
G1 X111.993 Y134.246 E10.49948
G1 X111.495 Y134.246 E10.52111
G1 X111.495 Y111.781 E11.49631
G1 X110.997 Y111.746 E11.518
G1 X110.997 Y134.246 E12.49472
G1 X110.498 Y134.246 E12.51635
G1 X110.498 Y111.798 E13.49078
G1 X110.097 Y111.851 E13.50834
G1 X110 Y111.884 E13.5128
G1 X110 Y134.246 E14.48351
G1 X109.502 Y134.246 E14.50514
G1 X109.502 Y112.055 E15.46844
G1 X109.37 Y112.1 E15.47446
G1 X109.003 Y111.998 E15.49099
G1 X109.003 Y134.246 E16.45675
G1 X108.505 Y134.246 E16.47838
G1 X108.505 Y111.86 E17.45012
G1 X108.304 Y111.805 E17.45916
G1 X108.007 Y111.784 E17.47211
G1 X108.007 Y134.246 E18.44718
G1 X107.508 Y134.246 E18.46881
G1 X107.508 Y111.749 E19.4454
G1 X107.461 Y111.746 E19.44746
G1 X107.01 Y111.804 E19.4672
G1 X107.01 Y134.246 E20.44137
G1 X106.512 Y134.246 E20.463
G1 X106.512 Y111.893 E21.43332
G1 X106.013 Y112.064 E21.45618
G1 X106.013 Y134.246 E22.41909
G1 X105.515 Y134.246 E22.44072
G1 X105.515 Y110.815 E23.45786
G1 X105.017 Y134.448 F18000
G1 F3000
G1 X105.017 Y85.754 E25.57162
G1 X104.518 Y85.754 E25.59325
G1 X104.518 Y134.246 E27.69825
G1 X104.02 Y134.246 E27.71988
G1 X104.02 Y85.754 E29.82488
G1 X103.522 Y85.754 E29.84651
G1 X103.522 Y134.246 E31.95151
G1 X103.023 Y134.246 E31.97314
G1 X103.023 Y85.754 E34.07814
G1 X102.525 Y85.754 E34.09977
G1 X102.525 Y134.246 E36.20477
G1 X102.027 Y134.246 E36.2264
G1 X102.027 Y85.754 E38.3314
G1 X101.528 Y85.754 E38.35303
G1 X101.528 Y134.246 E40.45803
G1 X101.03 Y134.246 E40.47966
G1 X101.03 Y85.754 E42.58465
G1 X100.532 Y85.754 E42.60629
G1 X100.532 Y134.246 E44.71128
G1 X100.033 Y134.246 E44.73292
G1 X100.033 Y85.754 E46.83791
G1 X99.535 Y85.754 E46.85955
G1 X99.535 Y134.246 E48.96454
G1 X99.037 Y134.246 E48.98617
G1 X99.037 Y85.754 E51.09117
G1 X98.538 Y85.754 E51.1128
G1 X98.538 Y134.246 E53.2178
G1 X98.04 Y134.246 E53.23943
G1 X98.04 Y85.754 E55.34443
G1 X97.542 Y85.754 E55.36606
G1 X97.542 Y134.246 E57.47106
G1 X97.043 Y134.246 E57.49269
G1 X97.043 Y85.754 E59.59769
G1 X96.545 Y85.754 E59.61932
G1 X96.545 Y134.246 E61.72432
G1 X96.047 Y134.246 E61.74595
G1 X96.047 Y85.754 E63.85095
G1 X95.548 Y85.754 E63.87258
G1 X95.548 Y134.246 E65.97758
G1 X95.05 Y134.246 E65.99921
G1 X95.05 Y85.754 E68.10421
G1 X94.552 Y85.754 E68.12584
G1 X94.552 Y134.246 E70.23083
G1 X94.054 Y134.246 E70.25247
G1 X94.054 Y85.754 E72.35746
G1 X93.555 Y85.754 E72.3791
G1 X93.555 Y134.246 E74.48409
G1 X93.057 Y134.246 E74.50573
G1 X93.057 Y85.754 E76.61072
G1 X92.559 Y85.754 E76.63235
G1 X92.559 Y134.246 E78.73735
G1 X92.06 Y134.246 E78.75898
G1 X92.06 Y85.754 E80.86398
G1 X91.562 Y85.754 E80.88561
G1 X91.562 Y134.246 E82.99061
G1 X91.064 Y134.246 E83.01224
G1 X91.064 Y85.754 E85.11724
G1 X90.565 Y85.754 E85.13887
G1 X90.565 Y134.246 E87.24387
G1 X90.067 Y134.246 E87.2655
G1 X90.067 Y85.754 E89.3705
G1 X89.569 Y85.754 E89.39213
G1 X89.569 Y134.246 E91.49713
G1 X89.07 Y134.246 E91.51876
G1 X89.07 Y85.754 E93.62376
G1 X88.572 Y85.754 E93.64539
G1 X88.572 Y134.246 E95.75039
G1 X88.074 Y134.246 E95.77202
G1 X88.074 Y85.754 E97.87701
G1 X87.575 Y85.754 E97.89865
G1 X87.575 Y134.246 E100.00364
G1 X87.077 Y134.246 E100.02528
G1 X87.077 Y85.754 E102.13027
G1 X87.03 Y85.754 E102.13233
G1 X86.805 Y85.771 E102.14209
G1 X86.616 Y85.817 E102.15056
G1 X86.579 Y85.832 E102.1523
G1 X86.579 Y134.168 E104.25048
G1 X86.435 Y134.108 E104.25722
G1 X86.269 Y134.006 E104.26569
G1 X86.12 Y133.88 E104.27416
G1 X86.08 Y133.833 E104.27684
G1 X86.08 Y85.889 E106.358
G1 E104.608 F6000
;WIPE_START
G1 F3000
G1 X86.08 Y86.889 E103.858
;WIPE_END
G92 E0
G1 X141.36 Y73.662 F18000
G1 E2.5 F6000
G1 F3000
G1 X141.625 Y73.762 E2.51231
G1 X142.717 Y73.601 E2.56024
G1 X143.192 Y73.729 E2.58157
G1 X144.031 Y74.047 E2.62054
G1 X144.066 Y74.087 E2.62284
G1 X144.212 Y74.143 E2.62962
G1 X144.493 Y74.453 E2.64778
G1 X144.854 Y74.59 E2.66456
G1 X145.552 Y75.36 E2.70965
G1 X145.661 Y75.721 E2.72605
G1 X146.022 Y76.119 E2.74935
G1 X146.272 Y76.901 E2.785
G1 X146.434 Y77.56 E2.81446
G1 X146.131 Y78.773 E2.86875
G1 X146.22 Y78.872 E2.87455
G1 X146.488 Y79.941 E2.92238
G1 X146.271 Y80.808 E2.96116
G1 X146.488 Y81.674 E2.99994
G1 X146.271 Y82.541 E3.03872
G1 X146.488 Y83.408 E3.0775
G1 X146.271 Y84.274 E3.11629
G1 X146.488 Y85.141 E3.15507
G1 X146.271 Y86.008 E3.19385
G1 X146.488 Y86.874 E3.23263
G1 X146.271 Y87.741 E3.27141
G1 X146.488 Y88.608 E3.3102
G1 X146.271 Y89.474 E3.34898
G1 X146.488 Y90.341 E3.38776
G1 X146.271 Y91.208 E3.42654
G1 X146.488 Y92.074 E3.46532
G1 X146.271 Y92.941 E3.50411
G1 X146.488 Y93.808 E3.54289
G1 X146.271 Y94.674 E3.58167
G1 X146.488 Y95.541 E3.62045
G1 X146.271 Y96.408 E3.65923
G1 X146.488 Y97.274 E3.69802
G1 X146.271 Y98.141 E3.7368
G1 X146.488 Y99.008 E3.77558
G1 X146.271 Y99.874 E3.81436
G1 X146.488 Y100.741 E3.85314
G1 X146.271 Y101.608 E3.89193
G1 X146.488 Y102.474 E3.93071
G1 X146.271 Y103.341 E3.96949
G1 X146.488 Y104.208 E4.00827
G1 X146.271 Y105.074 E4.04705
G1 X146.488 Y105.941 E4.08584
G1 X146.271 Y106.808 E4.12462
G1 X146.488 Y107.674 E4.1634
G1 X146.271 Y108.541 E4.20218
G1 X146.488 Y109.408 E4.24097
G1 X146.271 Y110.274 E4.27975
G1 X146.488 Y111.141 E4.31853
G1 X146.271 Y112.008 E4.35731
G1 X146.488 Y112.874 E4.39609
G1 X146.271 Y113.741 E4.43488
G1 X146.488 Y114.608 E4.47366
G1 X146.271 Y115.474 E4.51244
G1 X146.488 Y116.341 E4.55122
G1 X146.271 Y117.208 E4.59
G1 X146.488 Y118.074 E4.62879
G1 X146.271 Y118.941 E4.66757
G1 X146.488 Y119.808 E4.70635
G1 X146.271 Y120.674 E4.74513
G1 X146.488 Y121.541 E4.78391
G1 X146.271 Y122.408 E4.8227
G1 X146.488 Y123.274 E4.86148
G1 X146.271 Y124.141 E4.90026
G1 X146.488 Y125.008 E4.93904
G1 X146.271 Y125.874 E4.97782
G1 X146.488 Y126.741 E5.01661
G1 X146.271 Y127.608 E5.05539
G1 X146.488 Y128.474 E5.09417
G1 X146.271 Y129.341 E5.13295
G1 X146.488 Y130.208 E5.17173
G1 X146.271 Y131.074 E5.21052
G1 X146.488 Y131.941 E5.2493
G1 X146.271 Y132.808 E5.28808
G1 X146.488 Y133.674 E5.32686
G1 X146.271 Y134.541 E5.36564
G1 X146.488 Y135.408 E5.40443
G1 X146.271 Y136.274 E5.44321
G1 X146.488 Y137.141 E5.48199
G1 X146.271 Y138.008 E5.52077
G1 X146.488 Y138.874 E5.55955
G1 X146.271 Y139.741 E5.59834
G1 X146.488 Y140.608 E5.63712
G1 X146.232 Y141.629 E5.6828
G1 X146.445 Y142.478 E5.7208
G1 X146.036 Y143.866 E5.78361
G1 X145.665 Y144.275 E5.80756
G1 X145.582 Y144.607 E5.82244
G1 X144.854 Y145.41 E5.86949
G1 X144.516 Y145.539 E5.88519
G1 X144.275 Y145.804 E5.90075
G1 X143.522 Y146.143 E5.93659
G1 X142.833 Y146.391 E5.96841
G1 X141.773 Y146.235 E6.01489
G1 X141.483 Y146.035 E6.03017
G1 X140.683 Y146.338 E6.06733
G1 X140.208 Y146.465 E6.08866
G1 X139.194 Y146.316 E6.13317
G1 X139.131 Y146.269 E6.13656
G1 X138.95 Y146.338 E6.14499
G1 X138.475 Y146.465 E6.16632
G1 X137.461 Y146.316 E6.21083
G1 X137.398 Y146.269 E6.21422
G1 X137.216 Y146.338 E6.22264
G1 X136.742 Y146.465 E6.24397
G1 X135.727 Y146.316 E6.28849
G1 X135.665 Y146.269 E6.29187
G1 X135.483 Y146.338 E6.3003
G1 X135.008 Y146.465 E6.32163
G1 X133.994 Y146.316 E6.36614
G1 X133.931 Y146.269 E6.36953
G1 X133.75 Y146.338 E6.37796
G1 X133.275 Y146.465 E6.39929
G1 X132.261 Y146.316 E6.4438
G1 X132.198 Y146.269 E6.44719
