; HEADER_BLOCK_START
; generated by OrcaSlicer 2.3.0 on 2025-07-12 at 16:29:42
; total layer number: 55
;_GP_TOTAL_LAYER_NUMBER_PLACEHOLDER
; filament_density: 1.24
; filament_diameter: 1.75
; max_z_height: 8.04
; HEADER_BLOCK_END

; THUMBNAIL_BLOCK_START

;
; THUMBNAIL_BLOCK_END

; external perimeters extrusion width = 0.42mm
; perimeters extrusion width = 0.45mm
; infill extrusion width = 0.45mm
; solid infill extrusion width = 0.42mm
; top infill extrusion width = 0.42mm
; support material extrusion width = 0.40mm
; first layer extrusion width = 0.50mm

; EXECUTABLE_BLOCK_START
M201 X2000 Y2000 Z800 E2000
M203 X300 Y300 Z8 E100
M204 P2000 R2000 T2000
M205 X10.00 Y10.00 Z2.00 E5.00 ; sets the jerk limits, mm/sec
;TYPE:Custom
G90 ; use absolute coordinates
M83 ; extruder relative mode
M104 S220 ; set extruder temp
M140 S60 ; set bed temp
M190 S60 ; wait for bed temp
M109 S220 ; wait for extruder temp
G28; move X/Y/Z to min endstops
G1 Z0.28; lift nozzle a bit
G92 E0
G1 Y3 F1800                                    ; zero the extruded length 
G1 X60  E25 F500                       ; Extrude 25mm of filament in a 5cm line. 
G92 E0                                     ; zero the extruded length again 
G1 E-2 F500                                ; Retract a little 
G1 X70 F4000                              ; Quickly wipe away from the filament line
M117
G90
G21
M82 ; use absolute distances for extrusion
G92 E0
; filament start gcode
M106 S0
;LAYER_CHANGE
;Z:0.24
;HEIGHT:0.24
; BEFORE_LAYER_CHANGE 0 @ 0.24mm
G1 E-2.5 F6000
G92 E0
; AFTER_LAYER_CHANGE 0 @ 0.24mm
;_SET_FAN_SPEED_CHANGING_LAYER
M204 S500
; printing object metstat.STL id:15 copy 0
G1 X76.697 Y76.604 F18000
G1 Z.24
G1 E2.5 F6000
;TYPE:Support interface
;WIDTH:0.4
G1 F3000
G1 X76.86 Y76.466 E2.5072
G1 X76.893 Y76.441 E2.5086
G1 X77.114 Y76.306 E2.51732
G1 X77.151 Y76.287 E2.51872
G1 X77.389 Y76.188 E2.52744
G1 X77.429 Y76.175 E2.52884
G1 X77.431 Y76.175 E2.52891
G1 X77.431 Y76.018 E2.5342
G1 X78.288 Y76.018 E2.56311
G1 X78.288 Y76.088 E2.56547
G1 X79.145 Y76.088 E2.59438
G1 X79.145 Y76.018 E2.59675
G1 X80.002 Y76.018 E2.62566
G1 X80.002 Y76.088 E2.62802
G1 X80.859 Y76.088 E2.65693
G1 X80.859 Y76.018 E2.65929
G1 X81.716 Y76.018 E2.6882
G1 X81.716 Y76.088 E2.69057
G1 X82.573 Y76.088 E2.71948
G1 X82.573 Y76.018 E2.72184
G1 X83.431 Y76.018 E2.75075
G1 X83.431 Y76.088 E2.75311
G1 X84.288 Y76.088 E2.78202
G1 X84.288 Y76.018 E2.78439
G1 X85.145 Y76.018 E2.8133
G1 X85.145 Y76.088 E2.81566
G1 X86.002 Y76.088 E2.84457
G1 X86.002 Y76.018 E2.84694
G1 X86.859 Y76.018 E2.87584
G1 X86.859 Y76.088 E2.87821
G1 X87.716 Y76.088 E2.90712
G1 X87.716 Y76.018 E2.90948
G1 X88.573 Y76.018 E2.93839
G1 X88.573 Y76.088 E2.94076
G1 X89.43 Y76.088 E2.96967
G1 X89.43 Y76.018 E2.97203
G1 X90.287 Y76.018 E3.00094
G1 X90.287 Y76.088 E3.0033
G1 X91.144 Y76.088 E3.03221
G1 X91.144 Y76.018 E3.03458
G1 X92.001 Y76.018 E3.06349
G1 X92.001 Y76.088 E3.06585
G1 X92.858 Y76.088 E3.09476
G1 X92.858 Y76.018 E3.09712
G1 X93.716 Y76.018 E3.12603
G1 X93.716 Y76.088 E3.1284
G1 X94.573 Y76.088 E3.15731
G1 X94.573 Y76.018 E3.15967
G1 X95.43 Y76.018 E3.18858
G1 X95.43 Y76.088 E3.19095
G1 X96.287 Y76.088 E3.21985
G1 X96.287 Y76.018 E3.22222
G1 X97.144 Y76.018 E3.25113
G1 X97.144 Y76.088 E3.25349
G1 X98.001 Y76.088 E3.2824
G1 X98.001 Y76.018 E3.28477
G1 X98.858 Y76.018 E3.31368
G1 X98.858 Y76.088 E3.31604
G1 X99.715 Y76.088 E3.34495
G1 X99.715 Y76.018 E3.34731
G1 X100.572 Y76.018 E3.37622
G1 X100.572 Y76.088 E3.37859
G1 X101.429 Y76.088 E3.4075
G1 X101.429 Y76.018 E3.40986
G1 X102.286 Y76.018 E3.43877
G1 X102.286 Y76.088 E3.44113
G1 X103.143 Y76.088 E3.47004
G1 X103.143 Y76.018 E3.47241
G1 X104 Y76.018 E3.50132
G1 X104 Y76.088 E3.50368
G1 X104.858 Y76.088 E3.53259
G1 X104.858 Y76.018 E3.53495
G1 X105.715 Y76.018 E3.56386
G1 X105.715 Y76.088 E3.56623
G1 X106.572 Y76.088 E3.59514
G1 X106.572 Y76.018 E3.5975
G1 X107.429 Y76.018 E3.62641
G1 X107.429 Y76.088 E3.62878
G1 X108.286 Y76.088 E3.65768
G1 X108.286 Y76.018 E3.66005
G1 X109.143 Y76.018 E3.68896
G1 X109.143 Y76.088 E3.69132
G1 X110 Y76.088 E3.72023
G1 X110 Y76.018 E3.7226
G1 X110.857 Y76.018 E3.75151
G1 X110.857 Y76.088 E3.75387
G1 X111.714 Y76.088 E3.78278
G1 X111.714 Y76.018 E3.78514
G1 X112.571 Y76.018 E3.81405
G1 X112.571 Y76.088 E3.81642
G1 X113.428 Y76.088 E3.84533
G1 X113.428 Y76.018 E3.84769
G1 X114.285 Y76.018 E3.8766
G1 X114.285 Y76.088 E3.87896
G1 X115.142 Y76.088 E3.90787
G1 X115.142 Y76.018 E3.91024
G1 X116 Y76.018 E3.93915
G1 X116 Y76.088 E3.94151
G1 X116.857 Y76.088 E3.97042
G1 X116.857 Y76.018 E3.97279
G1 X117.714 Y76.018 E4.00169
G1 X117.714 Y76.088 E4.00406
G1 X118.571 Y76.088 E4.03297
G1 X118.571 Y76.018 E4.03533
G1 X119.428 Y76.018 E4.06424
G1 X119.428 Y76.088 E4.06661
G1 X120.285 Y76.088 E4.09552
G1 X120.285 Y76.018 E4.09788
G1 X121.142 Y76.018 E4.12679
G1 X121.142 Y76.088 E4.12915
G1 X121.999 Y76.088 E4.15806
G1 X121.999 Y76.018 E4.16043
G1 X122.856 Y76.018 E4.18934
G1 X122.856 Y76.088 E4.1917
G1 X123.713 Y76.088 E4.22061
G1 X123.713 Y76.018 E4.22297
G1 X124.57 Y76.018 E4.25188
G1 X124.57 Y76.088 E4.25425
G1 X125.427 Y76.088 E4.28316
G1 X125.427 Y76.018 E4.28552
G1 X126.285 Y76.018 E4.31443
G1 X126.285 Y76.088 E4.31679
G1 X127.142 Y76.088 E4.3457
G1 X127.142 Y76.018 E4.34807
G1 X127.999 Y76.018 E4.37698
G1 X127.999 Y76.088 E4.37934
G1 X128.856 Y76.088 E4.40825
G1 X128.856 Y76.018 E4.41062
G1 X129.713 Y76.018 E4.43952
G1 X129.713 Y76.088 E4.44189
G1 X130.57 Y76.088 E4.4708
G1 X130.57 Y76.018 E4.47316
G1 X131.427 Y76.018 E4.50207
G1 X131.427 Y76.088 E4.50444
G1 X132.284 Y76.088 E4.53335
G1 X132.284 Y76.018 E4.53571
G1 X133.141 Y76.018 E4.56462
G1 X133.141 Y76.088 E4.56698
G1 X133.998 Y76.088 E4.59589
G1 X133.998 Y76.018 E4.59826
G1 X134.855 Y76.018 E4.62717
G1 X134.855 Y76.088 E4.62953
G1 X135.712 Y76.088 E4.65844
G1 X135.712 Y76.018 E4.6608
G1 X136.569 Y76.018 E4.68971
G1 X136.569 Y76.088 E4.69208
G1 X137.427 Y76.088 E4.72099
G1 X137.427 Y76.018 E4.72335
G1 X138.284 Y76.018 E4.75226
G1 X138.284 Y76.088 E4.75463
G1 X139.141 Y76.088 E4.78353
G1 X139.141 Y76.018 E4.7859
G1 X139.998 Y76.018 E4.81481
G1 X139.998 Y76.088 E4.81717
G1 X140.855 Y76.088 E4.84608
G1 X140.855 Y76.018 E4.84845
G1 X141.712 Y76.018 E4.87736
G1 X141.712 Y76.088 E4.87972
G1 X142.02 Y76.088 E4.8901
G1 X142.059 Y76.091 E4.89143
G1 X142.101 Y76.097 E4.89285
G1 X142.271 Y76.123 E4.89866
G1 X142.285 Y76.126 E4.89914
G1 X142.569 Y76.184 E4.90892
G1 X142.569 Y76.018 E4.9145
G1 X143.425 Y76.018 E4.94337
G1 X143.425 Y76.575 E4.96216
G1 X143.426 Y76.575 E4.9622
G1 X143.426 Y76.75 E4.9681
G1 X143.472 Y76.799 E4.97035
G1 X143.508 Y76.849 E4.97243
G1 X143.795 Y77.356 E4.99209
G1 X143.825 Y77.438 E4.99501
G1 X143.883 Y77.744 E5.00553
G1 X143.885 Y77.759 E5.00606
G1 X143.91 Y77.949 E5.01252
G1 X143.912 Y77.983 E5.01366
G1 X143.912 Y142.017 E7.17351
G1 X143.91 Y142.051 E7.17465
G1 X143.885 Y142.241 E7.18111
G1 X143.883 Y142.256 E7.18165
G1 X143.825 Y142.562 E7.19216
G1 X143.795 Y142.644 E7.19508
G1 X143.508 Y143.151 E7.21474
G1 X143.472 Y143.201 E7.21682
G1 X143.426 Y143.25 E7.21907
G1 X143.426 Y143.425 E7.22497
G1 X143.425 Y143.425 E7.22501
G1 X143.425 Y143.982 E7.2438
G1 X142.569 Y143.982 E7.27267
G1 X142.569 Y143.816 E7.27826
G1 X142.285 Y143.875 E7.28804
G1 X142.271 Y143.877 E7.28851
G1 X142.059 Y143.909 E7.29575
G1 X142.02 Y143.912 E7.29708
G1 X141.712 Y143.912 E7.30746
G1 X141.712 Y143.982 E7.30982
G1 X140.855 Y143.982 E7.33873
G1 X140.855 Y143.912 E7.3411
G1 X139.998 Y143.912 E7.37001
G1 X139.998 Y143.982 E7.37238
G1 X139.141 Y143.982 E7.40129
G1 X139.141 Y143.912 E7.40365
G1 X138.284 Y143.912 E7.43256
G1 X138.284 Y143.982 E7.43493
G1 X137.427 Y143.982 E7.46384
G1 X137.427 Y143.912 E7.46621
G1 X136.569 Y143.912 E7.49511
G1 X136.569 Y143.982 E7.49748
G1 X135.712 Y143.982 E7.52639
G1 X135.712 Y143.912 E7.52876
G1 X134.855 Y143.912 E7.55767
G1 X134.855 Y143.982 E7.56003
G1 X133.998 Y143.982 E7.58894
G1 X133.998 Y143.912 E7.59131
G1 X133.141 Y143.912 E7.62022
G1 X133.141 Y143.982 E7.62259
G1 X132.284 Y143.982 E7.65149
G1 X132.284 Y143.912 E7.65386
G1 X131.427 Y143.912 E7.68277
G1 X131.427 Y143.982 E7.68514
G1 X130.57 Y143.982 E7.71405
G1 X130.57 Y143.912 E7.71641
G1 X129.713 Y143.912 E7.74532
G1 X129.713 Y143.982 E7.74769
G1 X128.856 Y143.982 E7.7766
G1 X128.856 Y143.912 E7.77897
G1 X127.999 Y143.912 E7.80787
G1 X127.999 Y143.982 E7.81024
G1 X127.142 Y143.982 E7.83915
G1 X127.142 Y143.912 E7.84152
G1 X126.284 Y143.912 E7.87043
G1 X126.284 Y143.982 E7.87279
G1 X125.427 Y143.982 E7.9017
G1 X125.427 Y143.912 E7.90407
G1 X124.57 Y143.912 E7.93298
G1 X124.57 Y143.982 E7.93535
G1 X123.713 Y143.982 E7.96426
G1 X123.713 Y143.912 E7.96662
G1 X122.856 Y143.912 E7.99553
G1 X122.856 Y143.982 E7.9979
G1 X121.999 Y143.982 E8.02681
G1 X121.999 Y143.912 E8.02917
G1 X121.142 Y143.912 E8.05808
G1 X121.142 Y143.982 E8.06045
G1 X120.285 Y143.982 E8.08936
G1 X120.285 Y143.912 E8.09173
G1 X119.428 Y143.912 E8.12064
G1 X119.428 Y143.982 E8.123
G1 X118.571 Y143.982 E8.15191
G1 X118.571 Y143.912 E8.15428
G1 X117.714 Y143.912 E8.18319
G1 X117.714 Y143.982 E8.18555
G1 X116.857 Y143.982 E8.21446
G1 X116.857 Y143.912 E8.21683
G1 X116 Y143.912 E8.24574
G1 X116 Y143.982 E8.24811
G1 X115.142 Y143.982 E8.27702
G1 X115.142 Y143.912 E8.27938
G1 X114.285 Y143.912 E8.30829
G1 X114.285 Y143.982 E8.31066
G1 X113.428 Y143.982 E8.33957
G1 X113.428 Y143.912 E8.34193
G1 X112.571 Y143.912 E8.37084
G1 X112.571 Y143.982 E8.37321
G1 X111.714 Y143.982 E8.40212
G1 X111.714 Y143.912 E8.40449
G1 X110.857 Y143.912 E8.4334
G1 X110.857 Y143.982 E8.43576
G1 X110 Y143.982 E8.46467
G1 X110 Y143.912 E8.46704
G1 X109.143 Y143.912 E8.49595
G1 X109.143 Y143.982 E8.49832
G1 X108.286 Y143.982 E8.52722
G1 X108.286 Y143.912 E8.52959
G1 X107.429 Y143.912 E8.5585
G1 X107.429 Y143.982 E8.56087
G1 X106.572 Y143.982 E8.58978
G1 X106.572 Y143.912 E8.59214
G1 X105.715 Y143.912 E8.62105
G1 X105.715 Y143.982 E8.62342
G1 X104.858 Y143.982 E8.65233
G1 X104.858 Y143.912 E8.6547
G1 X104 Y143.912 E8.6836
G1 X104 Y143.982 E8.68597
G1 X103.143 Y143.982 E8.71488
G1 X103.143 Y143.912 E8.71725
G1 X102.286 Y143.912 E8.74616
G1 X102.286 Y143.982 E8.74852
G1 X101.429 Y143.982 E8.77743
G1 X101.429 Y143.912 E8.7798
G1 X100.572 Y143.912 E8.80871
G1 X100.572 Y143.982 E8.81108
G1 X99.715 Y143.982 E8.83998
G1 X99.715 Y143.912 E8.84235
G1 X98.858 Y143.912 E8.87126
G1 X98.858 Y143.982 E8.87363
G1 X98.001 Y143.982 E8.90254
G1 X98.001 Y143.912 E8.9049
G1 X97.144 Y143.912 E8.93381
G1 X97.144 Y143.982 E8.93618
G1 X96.287 Y143.982 E8.96509
G1 X96.287 Y143.912 E8.96746
G1 X95.43 Y143.912 E8.99637
G1 X95.43 Y143.982 E8.99873
G1 X94.573 Y143.982 E9.02764
G1 X94.573 Y143.912 E9.03001
G1 X93.715 Y143.912 E9.05892
G1 X93.715 Y143.982 E9.06128
G1 X92.858 Y143.982 E9.09019
G1 X92.858 Y143.912 E9.09256
G1 X92.001 Y143.912 E9.12147
G1 X92.001 Y143.982 E9.12384
G1 X91.144 Y143.982 E9.15275
G1 X91.144 Y143.912 E9.15511
G1 X90.287 Y143.912 E9.18402
G1 X90.287 Y143.982 E9.18639
G1 X89.43 Y143.982 E9.2153
G1 X89.43 Y143.912 E9.21766
G1 X88.573 Y143.912 E9.24657
G1 X88.573 Y143.982 E9.24894
G1 X87.716 Y143.982 E9.27785
G1 X87.716 Y143.912 E9.28022
G1 X86.859 Y143.912 E9.30913
G1 X86.859 Y143.982 E9.31149
G1 X86.002 Y143.982 E9.3404
G1 X86.002 Y143.912 E9.34277
G1 X85.145 Y143.912 E9.37168
G1 X85.145 Y143.982 E9.37404
G1 X84.288 Y143.982 E9.40295
G1 X84.288 Y143.912 E9.40532
G1 X83.431 Y143.912 E9.43423
G1 X83.431 Y143.982 E9.4366
G1 X82.573 Y143.982 E9.46551
G1 X82.573 Y143.912 E9.46787
G1 X81.716 Y143.912 E9.49678
G1 X81.716 Y143.982 E9.49915
G1 X80.859 Y143.982 E9.52806
G1 X80.859 Y143.912 E9.53043
G1 X80.002 Y143.912 E9.55933
G1 X80.002 Y143.982 E9.5617
G1 X79.145 Y143.982 E9.59061
G1 X79.145 Y143.912 E9.59298
G1 X78.288 Y143.912 E9.62189
G1 X78.288 Y143.982 E9.62425
G1 X77.431 Y143.982 E9.65316
G1 X77.431 Y143.822 E9.65855
G1 X77.356 Y143.795 E9.66124
G1 X76.849 Y143.508 E9.6809
G1 X76.799 Y143.472 E9.68298
G1 X76.7 Y143.38 E9.68752
G1 X77.431 Y143.982 F18000
G1 F3000
G1 X76.575 Y143.982 E9.71638
G1 X76.575 Y143.425 E9.73517
G1 X76.574 Y143.425 E9.73522
G1 X76.574 Y143.254 E9.74097
G1 X76.56 Y143.237 E9.74173
G1 X76.23 Y142.709 E9.76271
G1 X76.195 Y142.622 E9.7659
G1 X76.126 Y142.285 E9.7775
G1 X76.123 Y142.271 E9.77797
G1 X76.091 Y142.059 E9.78521
G1 X76.088 Y142.02 E9.78654
G1 X76.088 Y77.99 E11.94626
G1 X76.089 Y77.969 E11.94696
G1 X76.109 Y77.721 E11.95533
G1 X76.115 Y77.68 E11.95673
G1 X76.175 Y77.429 E11.96545
G1 X76.188 Y77.389 E11.96686
G1 X76.281 Y77.165 E11.97504
G1 X76.299 Y77.131 E11.97635
G1 X76.439 Y76.896 E11.98556
G1 X76.465 Y76.861 E11.98705
G1 X76.574 Y76.733 E11.99272
G1 X76.574 Y76.575 E11.99803
G1 X76.575 Y76.575 E11.99808
G1 X76.575 Y76.018 E12.01687
G1 X77.431 Y76.018 E12.04573
G1 E10.29573 F6000
;WIPE_START
G1 F3000
G1 X76.575 Y76.018 E9.65391
G1 X76.575 Y76.162 E9.54573
;WIPE_END
G92 E0
G1 X119.728 Y102.501 F18000
G1 E2.5 F6000
;TYPE:Support
;WIDTH:0.5
G1 F3000
G1 X120.285 Y102.501 E2.52418
G1 X120.285 Y117.499 E3.17524
G1 X119.728 Y117.499 E3.19943
G1 X119.728 Y118.056 E3.22361
G1 X100.272 Y118.056 E4.06813
G1 X100.272 Y117.499 E4.09231
G1 X99.715 Y117.499 E4.11649
G1 X99.715 Y102.501 E4.76755
G1 X100.272 Y102.501 E4.79173
G1 X100.272 Y101.944 E4.81592
G1 X119.728 Y101.944 E5.66043
G1 X119.728 Y102.434 E5.6817
G1 X105.244 Y106.915 F18000
G1 F3000
G1 X114.757 Y106.915 E6.09464
G1 X114.757 Y107.472 E6.11882
G1 X115.314 Y107.472 E6.14301
G1 X115.314 Y112.528 E6.3625
G1 X114.757 Y112.528 E6.38668
G1 X114.757 Y113.085 E6.41086
G1 X105.244 Y113.085 E6.82381
G1 X105.244 Y112.528 E6.84799
G1 X104.686 Y112.528 E6.87217
G1 X104.686 Y107.472 E7.09166
G1 X105.244 Y107.472 E7.11584
G1 X105.244 Y106.982 E7.13711
G1 E5.38711 F6000
;WIPE_START
G1 F3000
G1 X105.244 Y107.472 E5.01975
G1 X104.733 Y107.472 E4.63711
;WIPE_END
G92 E0
G1 X119.468 Y117.855 F18000
G1 E2.5 F6000
G1 F3000
G1 X119.468 Y102.904 E3.14896
G1 X119.324 Y102.904 E3.15522
G1 X119.324 Y102.347 E3.17941
G1 X118.97 Y102.347 E3.19478
G1 X118.97 Y117.653 E3.85916
G1 X118.472 Y117.653 E3.88079
G1 X118.472 Y102.347 E4.54517
G1 X117.973 Y102.347 E4.5668
G1 X117.973 Y117.653 E5.23119
G1 X117.475 Y117.653 E5.25282
G1 X117.475 Y102.347 E5.9172
G1 X116.977 Y102.347 E5.93883
G1 X116.977 Y117.653 E6.60322
G1 X116.478 Y117.653 E6.62485
G1 X116.478 Y102.347 E7.28923
G1 X115.98 Y102.347 E7.31086
G1 X115.98 Y117.653 E7.97525
G1 X115.482 Y117.653 E7.99688
G1 X115.482 Y112.932 E8.2018
G1 X115.16 Y112.932 E8.21575
G1 X115.16 Y113.489 E8.23994
G1 X114.983 Y113.489 E8.24762
G1 X114.983 Y117.653 E8.42836
G1 X114.485 Y117.653 E8.44999
G1 X114.485 Y113.489 E8.63073
G1 X113.987 Y113.489 E8.65236
G1 X113.987 Y117.653 E8.83311
G1 X113.488 Y117.653 E8.85474
G1 X113.488 Y113.489 E9.03548
G1 X112.99 Y113.489 E9.05711
G1 X112.99 Y117.653 E9.23786
G1 X112.492 Y117.653 E9.25949
G1 X112.492 Y113.489 E9.44023
G1 X111.993 Y113.489 E9.46186
G1 X111.993 Y117.653 E9.6426
G1 X111.495 Y117.653 E9.66424
G1 X111.495 Y113.489 E9.84498
G1 X110.997 Y113.489 E9.86661
G1 X110.997 Y117.653 E10.04735
G1 X110.498 Y117.653 E10.06898
G1 X110.498 Y113.489 E10.24973
G1 X110 Y113.489 E10.27136
G1 X110 Y117.653 E10.4521
G1 X109.502 Y117.653 E10.47373
G1 X109.502 Y113.489 E10.65448
G1 X109.003 Y113.489 E10.67611
G1 X109.003 Y117.653 E10.85685
G1 X108.505 Y117.653 E10.87848
G1 X108.505 Y113.489 E11.05922
G1 X108.007 Y113.489 E11.08086
G1 X108.007 Y117.653 E11.2616
G1 X107.508 Y117.653 E11.28323
G1 X107.508 Y113.489 E11.46397
G1 X107.01 Y113.489 E11.4856
G1 X107.01 Y117.653 E11.66635
G1 X106.512 Y117.653 E11.68798
G1 X106.512 Y113.489 E11.86872
G1 X106.013 Y113.489 E11.89035
G1 X106.013 Y117.653 E12.0711
G1 X105.515 Y117.653 E12.09273
G1 X105.515 Y113.489 E12.27347
G1 X105.017 Y113.489 E12.2951
G1 X105.017 Y117.653 E12.47584
G1 X104.518 Y117.653 E12.49748
G1 X104.518 Y112.932 E12.7024
G1 X104.283 Y112.932 E12.71263
G1 X104.283 Y107.068 E12.96716
G1 X104.518 Y107.068 E12.97739
G1 X104.518 Y102.347 E13.18231
G1 X105.017 Y102.347 E13.20394
G1 X105.017 Y106.511 E13.38469
G1 X105.515 Y106.511 E13.40632
G1 X105.515 Y102.347 E13.58706
G1 X106.013 Y102.347 E13.60869
